X:357
T:Reel 357
M:4/4
K:Cmaj
L:1/8
G|c2GF ECCE|DEFc BGFD|ECGF EGCE|FAGF ECCB|c2GF ECCE|DEFG DB,B,F|ECcD ECGC|FAGF ECC|D|ECG,C EFGE|DFAB BGFD|ECG,C EFGE|FAGF ECCD|ECG,C EFGE|DEFG DB,G,B,|EDEG cBcA|BGFD ECC|
